X: 14925
T: Gavotenn Ar Menez
R: barndance
M: 4/4
K: Bminor
"Bm"Bff/e/d efg2|"A"f/g/fee d2d2|"Bm"Bff/e/d efg2|"A"f/g/fee d2d2||
"Bm"Bdde fdB2|"A"B/c/dcA B2B2|"G"Bdd"F#m"e fd"Em"B2|B/c/"F#m"dcA "G"B2"A"B2||

